X:1
T:The Bee-Hive
M:4/4
L:1/4
K:D
 D| F A d f| e c BA/2-G/2| AG/2-F/2 E D| A d z| D| F A d f| e c BA/2-G/2|\
 AG/2-F/2 E D| A d z| f| e d/2c/2 dc/2-B/2| A F Ae/2-f/2|g/2-f/2 e/2d/2 c A|\
 c e z| f| g f/2e/2 fe/2-d/2| e B/2e/2 cB/2-A/2| d D F A| d f z||
